assets/social2.svg

<svg viewBox="0 0 31 30" fill="none" xmlns="http://www.w3.org/2000/svg">
  <path d="M27.3918 0H3.26456C1.63002 0 .303436 1.32388.303436 2.95508V27.0331c0 1.6312 1.326584 2.9551 2.961124 2.9551H27.4037c1.6345 0 2.9611-1.3239 2.9611-2.9551V2.95508C30.3529 1.32388 29.0264 0 27.3918 0Zm-3.044 8.67612L21.5762 22.3877c-.2014.9693-.7936 1.2057-1.6109.7565l-4.4298-3.2624c-1.0423 1.0047-1.6938 1.643-2.132 2.0567-.3672.331-.5094.461-.8647.4492-.3435 0-.4975-.2128-.6988-.7565l-1.6346-4.9882-4.25213-1.3239c-.68699-.2245-.72252-1.1347.2132-1.4066L23.1633 7.49409c.7818-.36643 1.4806-.01182 1.1845 1.18203Z" fill="#494949"/>
  <path d="m20.5694 10.2718-9.677 6.0638 1.6464 5.0355.4146-3.6052 8.0306-7.2104c.2132-.2483.0592-.60287-.4146-.2837Z" fill="#494949"/>
</svg>

<svg width="31" height="30" viewBox="0 0 31 30" fill="none" xmlns="http://www.w3.org/2000/svg">
<path d="M27.3918 0H3.26456C1.63002 0 0.303436 1.32388 0.303436 2.95508V27.0331C0.303436 28.6643 1.63002 29.9882 3.26456 29.9882H27.4037C29.0382 29.9882 30.3648 28.6643 30.3648 27.0331V2.95508C30.3529 1.32388 29.0264 0 27.3918 0ZM24.3478 8.67612L21.5762 22.3877C21.3748 23.357 20.7826 23.5934 19.9653 23.1442L15.5355 19.8818C14.4932 20.8865 13.8417 21.5248 13.4035 21.9385C13.0363 22.2695 12.8941 22.3995 12.5388 22.3877C12.1953 22.3877 12.0413 22.1749 11.84 21.6312L10.2054 16.643L5.95327 15.3191C5.26628 15.0946 5.23075 14.1844 6.16647 13.9125L23.1633 7.49409C23.9451 7.12766 24.6439 7.48227 24.3478 8.67612Z" fill="#494949"/>
<path d="M20.5694 10.2718L10.8924 16.3356L12.5388 21.3711L12.9534 17.7659L20.984 10.5555C21.1972 10.3072 21.0432 9.95263 20.5694 10.2718Z" fill="#494949"/>
</svg>
